symbols/web/folder_zip/materialsymbolsrounded/folder_zip_wght200gradN25fill1_40px.svg

<svg xmlns="http://www.w3.org/2000/svg" height="40" width="40"><path d="M7.5 31.583q-1 0-1.688-.708-.687-.708-.687-1.667V12.125q0-.958.687-1.667Q6.5 9.75 7.5 9.75h9.75q.5 0 .958.208.459.209.792.5l1 1.042h12.5q1 0 1.688.708.687.709.687 1.667v15.333q0 .959-.687 1.667-.688.708-1.688.708Zm15.708-1.375h3.459V26.75h3.5v-3.5h-3.5v-3.458h3.5v-3.459h-3.5v-3.458h-3.459v3.458h3.459v3.459h-3.459v3.458h3.459v3.5h-3.459Z"/></svg>

<svg xmlns="http://www.w3.org/2000/svg" height="40" width="40"><path d="M7.5 31.583Q6.5 31.583 5.812 30.875Q5.125 30.167 5.125 29.208V12.125Q5.125 11.167 5.812 10.458Q6.5 9.75 7.5 9.75H17.25Q17.75 9.75 18.208 9.958Q18.667 10.167 19 10.458L20 11.5H32.5Q33.5 11.5 34.188 12.208Q34.875 12.917 34.875 13.875V29.208Q34.875 30.167 34.188 30.875Q33.5 31.583 32.5 31.583ZM23.208 30.208H26.667V26.75H30.167V23.25H26.667V19.792H30.167V16.333H26.667V12.875H23.208V16.333H26.667V19.792H23.208V23.25H26.667V26.75H23.208Z"/></svg>
